Newaita/actions/16/tools-timer-symbolic.svg

<svg height="16" viewBox="0 0 16 16" width="16" xmlns="http://www.w3.org/2000/svg"><g fill="#424242"><path d="m7.9375 1.449219c-3.664062 0-6.613281 2.949219-6.613281 6.613281s2.949219 6.617188 6.613281 6.617188 6.617188-2.953126 6.617188-6.617188-2.953126-6.613281-6.617188-6.613281zm0 1.320312c2.933594 0 5.292969 2.363281 5.292969 5.292969 0 2.933594-2.359375 5.292969-5.292969 5.292969-2.929688 0-5.292969-2.359375-5.292969-5.292969 0-2.929688 2.363281-5.292969 5.292969-5.292969zm0 0"/><path d="m12.328125 6.546875c-.046875-.175781-.226563-.28125-.40625-.234375l-4.152344 1.113281c-.355469.09375-.5625.457031-.46875.808594.09375.355469.457031.5625.8125.46875l4.152344-1.113281c.175781-.046875.28125-.226563.234375-.402344zm0 0"/></g></svg>

<?xml version="1.0" encoding="UTF-8"?>
<svg xmlns="http://www.w3.org/2000/svg" xmlns:xlink="http://www.w3.org/1999/xlink" width="16px" height="16px" viewBox="0 0 16 16" version="1.1">
<g id="surface1">
<path style=" stroke:none;fill-rule:nonzero;fill:rgb(25.882354%,25.882354%,25.882354%);fill-opacity:1;" d="M 7.9375 1.449219 C 4.273438 1.449219 1.324219 4.398438 1.324219 8.0625 C 1.324219 11.726562 4.273438 14.679688 7.9375 14.679688 C 11.601562 14.679688 14.554688 11.726562 14.554688 8.0625 C 14.554688 4.398438 11.601562 1.449219 7.9375 1.449219 Z M 7.9375 2.769531 C 10.871094 2.769531 13.230469 5.132812 13.230469 8.0625 C 13.230469 10.996094 10.871094 13.355469 7.9375 13.355469 C 5.007812 13.355469 2.644531 10.996094 2.644531 8.0625 C 2.644531 5.132812 5.007812 2.769531 7.9375 2.769531 Z M 7.9375 2.769531 "/>
<path style=" stroke:none;fill-rule:nonzero;fill:rgb(25.882354%,25.882354%,25.882354%);fill-opacity:1;" d="M 12.328125 6.546875 C 12.28125 6.371094 12.101562 6.265625 11.921875 6.3125 L 7.769531 7.425781 C 7.414062 7.519531 7.207031 7.882812 7.300781 8.234375 C 7.394531 8.589844 7.757812 8.796875 8.113281 8.703125 L 12.265625 7.589844 C 12.441406 7.542969 12.546875 7.363281 12.5 7.1875 Z M 12.328125 6.546875 "/>
</g>
</svg>
